X:137
%%etbk:tnset id:48,pos:3,rep:3x,ant:
%%etbk:pldat 2016-08-04T18:14,2016-08-02T15:34,2015-07-17T10:38,2015-01-28T16:18,2015-01-25T17:17,2015-01-24T12:39,2015-01-17T14:53,2014-12-31T15:46,2014-12-20T15:22,2014-12-17T18:23,2014-12-03T17:36,2014-12-02T17:44,2014-09-11T18:43,2014-04-30T17:15,2014-04-03T19:45,2014-04-02T17:14,2014-02-11T17:37,2013-12-11T19:40,2013-12-10T19:12,2013-11-26T16:26,2013-11-23T16:31,2013-11-20T18:11
T:Gan Ainm (Mary MacNamara + Pat O'Connor's)
Z: Piano Box Version by Martin Fleischmann
H: Created 2013-02-19 /  Last Modified 2013-11-20
M: 4/4
L: 1/8
R: reel
K: Ador
| "am"!5!e3 d !3!c!1!AAB |ccec "G"!4!d!2!B!1!G!2!B | "am"!5!e3 d  !3!^c!1!def | "G"gfge !1!d2 !3!^c!4!d |
"am"!5!e3 d cAAB |ccec "G"dBGB | "am"e3 d  ^cdef |gfge "G"!1!d!3!c!1!A!2!B |
"C"!1!c2!4!gc !5!ac!4!gc|!2!cc!5!g!4!e "G"!3!d!2!B!1!A!2!B | "C"!1!c2gc acgc | "G"!2!eage !1!d!3!c!1!A!2!B |
"C"!1!c2gc acgc|!2!ccge "G"dBAB | "C"!1!c2gc acgc | "G"eage !1!d2 !3!^c!4!d||


